X:0716
T:The New Highland Laddie.
N:or The Lowland Lassie, or Kate Dalrymple
M:C|
L:1/8
Q:1/2=104
I: :: :|
N:Bars 2 and 6 would be |G2GB A2B2| in the modern
N:version - it's not clear if this is a misprint.
Z:Jack Campin * www.campin.me.uk * 2009
K:G
G2GB A2AB| G2GB (B2A2)|G2g2 d2(cB)| ABcA  B2G2 |
G2GB A2AB| G2GB  B2A2 |G2g2 d2(cB)|(ABcA) B2G2:|
d3 e d3 e| dgdg  d2Bc |d3 e d3  e | dgdg  d2B2 |
c2ec B2dB|(ABcA) B2G2 |G2g2 d2(cB)|(ABcA) B2G2:|

